dist/img/icons/sizes.svg

<svg width="22" height="11" viewBox="0 0 22 11" fill="none" xmlns="http://www.w3.org/2000/svg"><path d="M0 11V9h22v2H0zm20-2V0h2v9h-2zM0 9V0h20v2h-2v3h-2V2h-2v5h-2V2h-2v3H8V2H6v3H4V2H2v7H0z" fill="#0B0B0B"/></svg>

<svg width="22" height="11" viewBox="0 0 22 11" fill="none" xmlns="http://www.w3.org/2000/svg">
<path d="M1.39861e-06 11L1.14431e-06 9L22 9L22 11L1.39861e-06 11ZM20 9L20 -2.54292e-06L22 -2.79721e-06L22 9L20 9ZM1.14431e-06 9L0 0L20 -2.54292e-06L20 2L18 2L18 5L16 5L16 2L14 2L14 7L12 7L12 2L10 2L10 5L8 5L8 2L6 2L6 5L4 5L4 2L2 2L2 9L1.14431e-06 9Z" fill="#0B0B0B"/>
</svg>
